X: 42158
T: Water Under The Bridge
R: reel
M: 4/4
K: Dmajor
|:AF2A F2DF|G2BG2BGE|AF2A F2DF|GFED CDEF|
AF2A F2DF|G2BG2BGE|FA2F EG2E|1 D2A,2 DEFG:|2 D2A,2 D2GA||
|:BG2B G2dG|AF2A F2dF|BF2B F2dF|GFED CDEF|
AF2A F2dF|G2BG2BGE|FA2F EG2E|1 D2A,2 D2GA:|2 D2A,2 D4||

